X:5
T:Cuddle the Buttler
L:1/8
M:6/8
Q:3/8=120
S:Chris Partington on tradtunes 2017-8-11
N:key of G maj in MS
K:C
|:\
c2d e2f | d2e c2d | ecA AcA | ecA AcA |\
c2d e2f | d2e c2e | dBG GBG | dBG GBG :|
|:\
g2e f2d | e2c d2B | ecA AcA | ecA AcA |\
g2e f2d | e2c Bdg | dBG GBG | dBG GBG :|
